X:1
T:The Well-Tempered Clavier Part I Praeludium IX
T:BWV 854
T:J. S. Bach
%%score { 1 | ( 2 3 4 ) }
L:1/8
M:12/8
K:E
V:1 treble nm="Harp"
V:2 bass 
V:3 bass 
V:4 bass 
V:1
 EGB ede d/4c/4d/4c/4Bc e3 | c/4B/4c/4B/4AB e3 ABc BcA | GBe g3- gfe dec | %3
 c/4d/4e/4d/4e/4d/4e/4d/4d- d3- def gce | F^Ac fef GBd e3 | F^Ac ede FAc =d3- | %6
 de=d cdB- B/4^A/4B/4A/4GF =gf^e | ed=d c/^d/e^A B6- | Bdf bab c^eg b3- | bga- afg- g^ef e/f/gc | %10
 =d6- d3- ddc | c3- cBA GAB- BAG | A3- ABG A3- AB/A/G/F/ | %13
 G/F/E/F/G/A/ B/A/G/A/B/c/ =d/c/B/A/G/F/ E z2 | Ace aga g/4f/4g/4f/4ef a3 | %15
 f/4e/4f/4e/4=de a3 def efd | cAB c3- cBA GAF | GEF G3- GAB cFA | B,DF BAB CEG A3 | %19
 B,DF AGA B,DF =G3- | GA=G FGE DCB, =cB^A | AG=G F/^G/AD E6- | E6- E3- E2 ^D | [G,B,E]12 |] %24
V:2
[I:staff -1] z3[I:staff +1] G,3 A,3- A,G,F, | G,3- G,A,G, F,6 | %2
 E,[I:staff -1] z z2 z2 z z[I:staff +1] C F3 |[I:staff -1] z6 z2 x[I:staff +1] E3- | E3 D6- DCB, | %5
 ^A,6- A,3 B,3- | B,C=D E6- E^DC | B,3 B,^A,E[I:staff -1] D6 | z6 z[I:staff +1] G,B, =DB,C- | %9
 C3 B,3 ^B,3 C3 |[I:staff -1] z BG ^EGF GBA B3- | BAG F3- F3 ^E3 | F3- F2 E D3 z2 z | x12 | %14
 z3[I:staff +1] C3 =D3- DCB, | C3- C=DC B,6 |[I:staff -1] z6 z z[I:staff +1] F, B,3 | %17
[I:staff -1] z6 z z[I:staff +1] E, A,3- | A,3 G,6- G,F,E, | D,6- D,3 E,3 | E,F,=G, A,6- A,^G,F, | %21
 E,3- E,D,A, G,E,G, A,G,A, |[I:staff -1] z G,B, =DCD C3- C2 C | x12 |] %24
V:3
 E,12- | E,6- E,3 D,3 | E,G,B, EDE ^A,6 | B,,D,F, B,^A,B, E,6 | F,12- | F,3- F,2 C, =D,3- D,E,F, | %6
 =G,6 F,3- F,^G,^A, | B,2 ^E, F,3 B,,D,F, B,=A,B, | G,3- G,F,G, ^E,6 | F,3 =D,3 ^D,3 C,3 | %10
 B,,6 B,G,F, G,/A,/B,=E, | F,3 A,,3 B,,3 C,3 | F,,A,,C, F,E,F, B,,D,F, B,A,B, | %13
 E,G,B, E=DC B,2 A, G,/D/C/B,/A,/G,/ | A,12- | A,6- A,3 G,3 | A,,C,E, A,G,A, D,6 | %17
 E,,G,,B,, E,D,E, A,,6 | B,,12- | B,,3- B,,2 F,, =G,,3- G,,A,,B,, | =C,4- C,2 B,,3- B,,^C,D, | %21
 E,2 ^A,, B,,3 C,6 | E,6 A,,C,E, A,G,A, | E,,12 |] %24
V:4
 x12 | x12 | x12 | x12 | x12 | x12 | x12 | x12 | x12 | x12 | z =D,^E, G,B,A, z2 z4 | x12 | x12 | %13
 x12 | x12 | x12 | x12 | x12 | x12 | x12 | x12 | x12 | G,,6 A,,6 | x12 |] %24

